X:1
T:Title
%%score { 1 | 2 }
L:1/8
M:3/4
K:F
V:1 treble nm="Grand Piano"
V:2 bass 
V:1
 z2 z2[Q:1/4=95] C>F | A3 A AG | A c3 c>c | [Ec]3 [EG] [FA][GB] |[M:2/4] A4 |[M:1/4] C>F | %6
[M:3/4] A3 A AG | A c3 c>c | [Ec]3 [GB] [FA]>[EG] |[M:2/4] F4 |[M:1/4] c>c | %11
[M:3/4] [Fd]3 [Ff] [Fe][Fd] | d/c/ c3 FG | A3 [Ac] [GB][FA] |[M:2/4] [EG]4 |[M:1/4] C>F | %16
[M:3/4] A3 A A[EG] | A c3 c>c | [Ec]3 [GB] [FA]>[EG] |[M:2/4] F4 |] %20
V:2
 z2 z2 [F,A,]>[F,A,C] | [F,CF]3 [F,CF] [F,CF][G,CE] | [F,CF] [F,A,F]3 [F,A,F]>[F,A,F] | %3
 [C,G,]3 [C,C] [C,C][C,C] |[M:2/4] [F,CF]4 |[M:1/4] [F,A,]>[F,A,C] | %6
[M:3/4] [F,CF]3 [F,CF] [F,CF][F,CE] | [F,CF] [F,A,F]3 [F,A,F]>[F,A,F] | %8
 [C,G,]3 [C,C] [C,C]>[C,B,] |[M:2/4] [F,A,]4 |[M:1/4] [F,A,F]>[F,A,F] | %11
[M:3/4] [B,,B,]3 [B,,D] [B,,C][B,,B,] | [F,A,F] [F,A,F]3 [F,A,][F,B,F] | [F,CF]3 [F,C] [E,C][F,C] | %14
[M:2/4] [C,C]4 |[M:1/4] [F,A,]>[F,A,C] |[M:3/4] [F,CF]3 [F,CF] [F,CF][C,C] | %17
 [F,CF] [F,A,F]3 [F,A,F]>[F,A,F] | [C,G,]3 [C,C] [C,C]>[C,B,] |[M:2/4] [F,A,]4 |] %20

